X: 37
T: Cosen Cole's Delight.
%R: _
B: "A Collection of Original Scotch-Tunes", Henry Playford, 1700, ed. p.15 #37
F: http://imslp.org/wiki/A_Collection_of_Original_Scotch_Tunes_(Various)
Z: 2015 John Chambers <jc:trillian.mit.edu>
M: none
L: 1/8
K: Gdor
% - - - - - - - - - - - - - - - - - - - - - - - - - - - - -
F2 |\
D2 F2 F3 B | GF GB g3 f | fgfd cBcd | B2 F2 F3 F |\
D2 F2 FG AF | G2 B2 g3 f | fg bg fd cd | B3 G G2 ||
f2 |\
gf gb fgfd | cBcd g3 b | fg bg fd cd | B2 F2 F3 B |\
G2 FG B2 GB | cBcd g3 f | bg fd cBcd | B3 G G2 |]
% - - - - - - - - - - - - - - - - - - - - - - - - - - - - -

%%sep 1 1 500
%%sep 1 1 500

